images/src/ic_vkontakte.svg

<svg
 xmlns="http://www.w3.org/2000/svg"
 xmlns:xlink="http://www.w3.org/1999/xlink"
 width="25px" height="14px">
<path fill-rule="evenodd"  fill="currentColor"
 d="M21.523,8.901 C22.353,9.703 23.228,10.457 23.973,11.340 C24.301,11.732 24.612,12.137 24.850,12.592 C25.188,13.239 24.882,13.951 24.296,13.989 L20.652,13.988 C19.713,14.065 18.963,13.691 18.333,13.055 C17.828,12.546 17.361,12.005 16.876,11.479 C16.677,11.264 16.469,11.062 16.220,10.902 C15.723,10.583 15.291,10.681 15.007,11.194 C14.717,11.716 14.652,12.295 14.623,12.876 C14.584,13.726 14.325,13.949 13.463,13.988 C11.621,14.074 9.873,13.798 8.250,12.879 C6.818,12.067 5.708,10.923 4.741,9.627 C2.860,7.104 1.419,4.332 0.124,1.482 C-0.167,0.839 0.046,0.495 0.762,0.483 C1.951,0.460 3.139,0.462 4.329,0.481 C4.812,0.488 5.132,0.763 5.319,1.214 C5.962,2.779 6.749,4.268 7.736,5.648 C7.999,6.016 8.267,6.383 8.649,6.642 C9.072,6.928 9.394,6.834 9.592,6.368 C9.719,6.072 9.774,5.754 9.802,5.438 C9.896,4.349 9.909,3.263 9.744,2.178 C9.642,1.501 9.257,1.063 8.575,0.934 C8.226,0.869 8.278,0.741 8.447,0.544 C8.740,0.205 9.015,-0.006 9.564,-0.006 L13.682,-0.006 C14.330,0.121 14.474,0.408 14.563,1.054 L14.567,5.582 C14.559,5.832 14.693,6.573 15.148,6.739 C15.512,6.857 15.752,6.568 15.970,6.340 C16.956,5.304 17.660,4.080 18.288,2.813 C18.567,2.255 18.807,1.677 19.039,1.098 C19.212,0.669 19.482,0.458 19.970,0.467 L23.933,0.471 C24.051,0.471 24.170,0.472 24.284,0.492 C24.952,0.604 25.134,0.888 24.928,1.534 C24.603,2.547 23.971,3.391 23.353,4.239 C22.692,5.144 21.985,6.018 21.329,6.928 C20.727,7.760 20.775,8.179 21.523,8.901 L21.523,8.901 Z"/>
</svg>

<svg xmlns="http://www.w3.org/2000/svg" viewBox="0 0 25.01 14.01"><path d="M21.52,8.9A33.18,33.18,0,0,1,24,11.34a7.22,7.22,0,0,1,.88,1.25c.34.65,0,1.36-.55,1.4H20.65a2.87,2.87,0,0,1-2.32-.93c-.5-.51-1-1.05-1.45-1.58a3.31,3.31,0,0,0-.66-.58.76.76,0,0,0-1.21.29,3.84,3.84,0,0,0-.39,1.69c0,.85-.3,1.07-1.16,1.11a9.43,9.43,0,0,1-5.21-1.11A11.6,11.6,0,0,1,4.74,9.63,44.29,44.29,0,0,1,.12,1.48C-.17.84.05.5.76.48q1.79,0,3.57,0a1.06,1.06,0,0,1,1,.73A21.48,21.48,0,0,0,7.74,5.65a3.73,3.73,0,0,0,.91,1,.55.55,0,0,0,.94-.27,3.06,3.06,0,0,0,.21-.93,13.17,13.17,0,0,0-.06-3.26A1.36,1.36,0,0,0,8.57.93C8.23.87,8.28.74,8.45.54A1.31,1.31,0,0,1,9.56,0h4.12c.65.13.79.42.88,1.06V5.58c0,.25.12,1,.58,1.16s.6-.17.82-.4a14,14,0,0,0,2.32-3.53c.28-.55.52-1.13.75-1.71A.88.88,0,0,1,20,.47h4a2,2,0,0,1,.35,0c.67.11.85.4.65,1a9.82,9.82,0,0,1-1.58,2.71c-.66.9-1.36,1.78-2,2.69s-.56,1.25.19,2Z" transform="translate(0 0.01)" fill-rule="evenodd" fill="currentColor" /></svg>
